X:1
T:San Antonio, 87.87 D
T:George Stark Schuler, 1907
T:San Antonio, 87.87 D
T:Public Domain
C:George Stark Schuler, 1907
Z:Public Domain
%%score ( 1 2 ) ( 3 4 )
L:1/8
M:9/8
K:Bb
V:1 treble 
V:2 treble 
V:3 bass 
V:4 bass 
V:1
 ([B,D][CE])[^C=E] | [DF]3 [DF]3 (FG)[EA] | [DB]3 [DF]3 (BA)[DG] | [EA]3 [EA]3 (AB)[Ec] | %4
 [DF]6 ([B,D][CE])[^C=E] | [DF]3 [DF]3 ([DB][EA])[F_A] | (E2 F) [Ec]3 (BA)[=CG] | %7
 [DF]3 [DB]3 ([EA][=EB])[Ec] | [DB]6 (DF)B | (E2 E) [EA]3 (GA)G | (E2 E) (D2 D) (FB)c | %11
 (F2 F) [Fd]3 (dc)d | (E2 E G3) [Ge]2 [_Ge] | [Fe]3 [Fe]3 (ed)[Ec] | ([DB]3 [^CG]3) (GA)B | %15
 (F2 F [Fd]2) [=EB] [_Ec]2 [Fd] | (D2 E [DB]3) |] %17
V:2
 x3 | x6 E2 x | x6 D2 x | x6 E2 x | x9 | x9 | G3 x ^C2 x3 | x9 | x9 | B3 x E3 x2 | G3 F3 x3 | %11
 d3 x F3 x2 | e6 x3 | x6 F2 x | x9 | d3- x6 | c3 x3 |] %17
V:3
 [B,,F,]2 [B,,G,] | [B,,F,]3 [B,,B,]3 (A,B,)[F,C] | [B,,B,]3 [B,,B,]3 [B,,F,]2 [B,,F,] | %3
 [C,F,]3 [F,,F,]3 (F,G,)[F,A,] | [B,,B,]6 [B,,F,]2 [B,,G,] | [B,,F,]3 [B,,B,]3 (B,,C,)[D,B,] | %6
 ([E,B,]2 [D,=B,]) [C,C]3 (G,A,)[_E,B,] | [F,B,]3 [B,,F,]3 (F,G,)[F,A,] | [B,,B,]6 z3 | %9
 [F,C]2 [F,C] [F,C]3 C2 A, | [B,,B,]2 [B,,B,] [B,,B,]2 [B,,B,] z3 | %11
 [G,=B,]2 [G,B,] [G,B,]3 (B,A,)B, | ([C,C]2 [C,C] [C,C]3) C2 [B,C] | %13
 [A,C]2 [G,B,] [F,A,]3 [F,A,]2 [^F,A,] | [G,B,]3 [=E,B,]3 z3 | %15
 ([B,,B,]2 [B,,B,] [B,,B,]2) [C,G,] F,2 [F,A,] | (B,2 G, [B,,F,]3) |] %17
V:4
 x3 | x6 F,2 x | x9 | x6 F,2 x | x9 | x6 F,2 x | x6 =E,2 x | x6 C,2 x | x9 | x6 F,3 | x9 | x6 G,3 | %12
 x6 C2 x | x9 | x9 | x6 F,2 x | B,,3- x3 |] %17

